frontend/public/svg/interface/dashboard-4.svg

<svg width="153" height="145" viewBox="0 0 153 145" fill="none" xmlns="http://www.w3.org/2000/svg">
<g clip-path="url(#clip0)">
<path d="M138.702 12.2457C133.369 12.9785 128.94 13.5512 124.523 14.2069C121.545 14.6491 118.589 15.2428 115.612 15.696C114.564 15.9073 113.487 15.9359 112.428 15.7806C111.115 15.5114 109.954 14.6381 109.978 13.1771C109.969 12.1314 110.34 11.1184 111.021 10.3252C112.007 9.49923 113.168 8.90887 114.416 8.5988C116.684 7.93854 119.016 7.49816 121.323 6.97513C128.66 5.30244 135.998 3.62959 143.336 1.95648C148.98 0.661836 152.254 2.7629 152.601 8.52987C152.91 13.6774 152.671 18.864 152.531 24.0296C152.392 29.1952 152.115 34.3531 151.814 39.5103C151.666 40.8671 151.437 42.2139 151.13 43.5437C149.33 43.9405 148.626 43.0907 148.326 42.031C147.509 39.1368 146.789 36.2134 146.108 33.283C145.526 30.7863 145.057 28.2643 144.402 25.0963C143.062 26.4803 141.931 27.3865 141.122 28.5226C133.383 39.4047 125.721 50.3411 117.988 61.2278C114.371 66.3202 110.692 71.368 106.951 76.3705C105.575 78.2982 104.008 80.0816 102.273 81.6928C99.3875 84.2465 96.1334 84.3468 92.7603 82.1543C90.9622 80.9859 89.3503 79.5314 87.6505 78.2057C82.5666 74.2473 77.4096 70.399 71.4273 67.2116C70.3238 68.2169 69.276 69.2817 68.2896 70.4016C59.7451 81.217 51.2234 92.0506 42.7244 102.902C38.9949 107.641 35.299 112.409 31.4486 117.049C30.0752 118.697 28.4816 120.148 26.7126 121.36C24.5406 122.845 23.4424 122.326 20.9153 119.106C21.3507 117.985 21.8793 116.903 22.4954 115.869C35.4588 97.3431 48.4495 78.8355 61.4676 60.3469C66.9617 52.5616 69.9409 51.8023 78.1845 56.3925C83.0646 59.1112 87.6732 62.3154 92.391 65.3214C93.6458 66.1215 94.8527 66.996 96.3857 68.0447L138.702 12.2457Z" fill="black"/>
<path d="M144.14 142.413C144.066 142.143 144.02 141.866 143.977 141.61C143.862 140.939 143.754 140.306 143.22 140.047C141.836 139.388 140.393 138.862 138.909 138.476C129.118 135.849 118.923 135.273 109.317 134.908C107.402 134.835 105.488 134.761 103.574 134.685C86.5995 134.017 69.0464 133.326 51.7466 134.4C41.624 135.027 31.3236 135.557 21.3627 136.069C18.5879 136.212 15.8133 136.356 13.039 136.499C12.3738 136.517 11.7083 136.482 11.0487 136.395L10.528 136.343C10.4828 136.175 10.4368 136.017 10.3935 135.868C10.2698 135.532 10.2006 135.178 10.1885 134.82C10.5365 130.283 10.8967 125.746 11.2693 121.21C11.8301 114.268 12.4103 107.089 12.9109 100.022C14.7142 74.5715 14.8732 52.1354 13.3979 31.4315C12.6935 22.1438 11.0782 12.9479 8.57533 3.97664C8.30413 3.14344 7.91184 2.3546 7.41101 1.63579C7.22087 1.33284 7.03335 1.03404 6.86971 0.734974L6.60513 0.248535L6.08449 0.435019C3.54318 1.3445 3.55287 3.24527 3.56192 4.63312V4.93656C3.5257 15.286 3.49983 25.6346 3.48431 35.9827C3.47978 38.4775 3.49271 40.9723 3.50499 43.467C3.53022 48.4313 3.55611 53.5654 3.44033 58.6061C3.10334 73.5073 2.66028 87.8934 2.11632 105.148C1.86212 113.204 1.52901 121.461 1.12605 129.688C0.959171 133.097 0.979175 137.592 2.63048 142.132L2.69515 142.307L2.84263 142.421C5.98289 144.865 9.15811 144.875 11.7111 144.862C15.0051 144.862 18.2995 144.854 21.5943 144.839C25.4105 144.828 29.2266 144.819 33.0428 144.816C57.4637 144.821 81.8842 144.834 106.305 144.853H110.614C112.605 144.853 114.597 144.862 116.591 144.879C118.66 144.891 120.766 144.904 122.881 144.904C125.043 144.904 127.215 144.891 129.37 144.85C134.166 144.72 138.941 144.173 143.642 143.213L144.325 143.084L144.14 142.413Z" fill="black"/>
</g>
<defs>
<clipPath id="clip0">
<rect width="152" height="145" fill="white" transform="translate(0.777344)"/>
</clipPath>
</defs>
</svg>

<svg xmlns="http://www.w3.org/2000/svg" width="153" height="145" fill="none" viewBox="0 0 153 145"><g fill="#000" clip-path="url(#a)"><path d="M138.702 12.246c-5.333.732-9.762 1.305-14.179 1.96-2.978.443-5.934 1.037-8.911 1.49a9.3 9.3 0 0 1-3.184.085c-1.313-.27-2.474-1.143-2.45-2.604a4.32 4.32 0 0 1 1.043-2.852 8.5 8.5 0 0 1 3.395-1.726c2.268-.66 4.6-1.1 6.907-1.624l22.013-5.019c5.644-1.294 8.918.807 9.265 6.574.309 5.147.07 10.334-.07 15.5-.139 5.165-.416 10.323-.717 15.48a35 35 0 0 1-.684 4.034c-1.8.397-2.504-.453-2.804-1.513-.817-2.894-1.537-5.818-2.218-8.748-.582-2.497-1.051-5.019-1.706-8.187-1.34 1.384-2.471 2.29-3.28 3.427-7.739 10.882-15.401 21.818-23.134 32.705a764 764 0 0 1-11.037 15.143 35 35 0 0 1-4.678 5.322c-2.885 2.553-6.14 2.654-9.513.461-1.798-1.168-3.41-2.623-5.11-3.948-5.083-3.959-10.24-7.807-16.223-10.994a41 41 0 0 0-3.137 3.19 9824 9824 0 0 0-25.566 32.5c-3.73 4.739-7.425 9.507-11.275 14.147a23.3 23.3 0 0 1-4.736 4.311c-2.172 1.485-3.27.966-5.798-2.254a21.6 21.6 0 0 1 1.58-3.237 23170 23170 0 0 1 38.973-55.522c5.494-7.785 8.473-8.545 16.716-3.955 4.88 2.72 9.49 5.923 14.207 8.93 1.255.8 2.462 1.674 3.995 2.723z"/><path d="M144.14 142.413c-.074-.27-.12-.547-.163-.803-.115-.671-.223-1.304-.757-1.563a24 24 0 0 0-4.311-1.571c-9.791-2.627-19.986-3.203-29.592-3.568q-2.872-.11-5.743-.223c-16.974-.668-34.528-1.359-51.827-.285-10.123.627-20.423 1.157-30.384 1.669l-8.324.43q-.999.027-1.99-.104l-.521-.052q-.068-.252-.135-.475a3.4 3.4 0 0 1-.205-1.048q.522-6.806 1.081-13.61c.561-6.942 1.141-14.121 1.642-21.188 1.803-25.45 1.962-47.887.487-68.59A142 142 0 0 0 8.575 3.977a9 9 0 0 0-1.164-2.341c-.19-.303-.378-.602-.541-.901L6.605.249l-.52.186c-2.542.91-2.532 2.81-2.523 4.198v.304q-.054 15.524-.078 31.046c-.004 2.495.009 4.99.021 7.484.025 4.964.051 10.098-.065 15.14-.337 14.9-.78 29.286-1.324 46.541-.254 8.056-.587 16.313-.99 24.54-.167 3.409-.147 7.904 1.504 12.444l.065.175.148.114c3.14 2.444 6.315 2.454 8.868 2.441q4.94 0 9.883-.023 5.724-.017 11.449-.023 36.63.008 73.262.037h4.309q2.986 0 5.977.026c2.069.012 4.175.025 6.29.025 2.162 0 4.334-.013 6.489-.054a82.5 82.5 0 0 0 14.272-1.637l.683-.129z"/></g><defs><clipPath id="a"><path fill="#fff" d="M.777 0h152v145h-152z"/></clipPath></defs></svg>
